X:1
T:Adoramus Te Christe
T:Adoramus Te Christe
T:Giovanni Battista Martini (1706-1784)
%%score [ 1 2 3 ]
L:1/8
Q:1/4=60
M:4/4
K:C
V:1 treble-8 nm="Alto"
V:2 treble-8 nm="Tenor"
V:3 bass nm="Bass"
V:1
 e6 e2 | e4 e2 e2 | (e2 dc d4) | e4 z4 | B6 B2 | B4 B2 B2 | (B2 AG A4) | B4 z4 | z2 B2 e3 d | %9
w: A- do-|ra- mus Te|Chri- * * *|ste,|a- do-|ra- mus Te|Chri- * * *|ste,|et be- ne|
 ^c2 c c (d4- | d2 =c2 B4) | A4 z2 c2- | c2 c4 c2 | d2 e2 f3 f | e4 d4 | z4 z2 f2- | f2 f2 e2 e2 | %17
w: di- ci- mus Ti-||bi, qui-|* a per|san- ctam Cru- cem|tu- am|re-|* de- mi- sti|
 e4 d4 | z4 z2 c2- | c2 c2 B2 B2 | B4 A4 | z8 | z2 e4 B2 | c4 ^c4 | d4 e4 | f4 e4 | (d2 e4 d2- | %27
w: mun- dum,|re-|* de- mi- sti|mun- dum,||re- de-|mi- sti|mun- dum,|re- de-|mi- * *|
 d2) c2 B2 B2- | B2 A4 ^G2 | (c6 BA) | B8 |] %31
w: * sti, re- de-|* mi- sti|mun- * *|dum.|
V:2
 c6 c2 | B4 B2 c2 | A8 | ^G4 z4 | =G6 G2 | ^F4 F2 G2 | E8 | ^D4 z2 ^F2 | B3 A ^G2 G G | (A8 | %10
w: A- do-|ra- mus Te|Chri-|ste,|a- do-|ra- mus Te|Chri-|ste, et|be- ne- di- ci- mus|Ti-|
 ^G2 A4 G2) | A4 z4 | A4 A2 A2 | B2 c2 c2 B2 | c4 B2 B2- | B2 ^c2 d4- | d4 d4 | (d2 ^c2) d2 ^F2- | %18
w: |bi,|qui- a per|san- ctam Cru- cem|tu- am re-|* de- mi-|* sti|mun- * dum, re-|
 F2 ^G2 A4- | A4 A4 | (A2 ^G2) A4 | z2 e4 B2 | c4 ^G4 | A4 A4 | A8 | A4 A4- | A2 G2 ^F4 | %27
w: * de- mi-|* sti|mun- * dum,|re- de-|mi- sti|mun- dum,|re-|de- mi-|* sti mun-|
 ^G2 A4 G2 | c4 B2 (B2- | B2 A^G A4- | A2 ^G^F) G4 |] %31
w: dum, re- de-|mi- sti mun-||* * * dum.|
V:3
 A,6 A,2 | ^G,4 G,2 A,2 | F,8 | E,6 z2 | E,6 E,2 | _E,4 E,2 =E,2 | C,8 | B,,4 z4 | z4 z2 E,2 | %9
w: A- do-|ra- mus Te|Chri-|ste,|a- do-|ra- mus Te|Chri-|ste,|et|
 A,3 G, F,2 F, F, | E,8 | A,,4 z4 | F,4 F,2 F,2 | F,2 E,2 D,2 G,2 | C,4 G,4 | D,4 D,4 | %16
w: be- ne- di- ci- mus|Ti-|bi,|qui- a per|san- ctam Cru- cem|tu- am|re- de-|
 (_B,4 G,2) ^G,2 | A,4 D,4 | B,,4 A,,4 | (F,4 D,2) ^D,2 | E,4 A,,4 | z8 | z8 | z2 A,4 E,2 | %24
w: mi- * sti|mun- dum,|re- de|mi- * sti|mun- dum,|||re- de-|
 F,4 ^C,4 | (D,4 =C,4) | B,,8 | E,4 E,4 | (A,4 E,2) E,2 | A,,8 | E,8 |] %31
w: mi- sti|mun- *|dum,|re- de|mi- * sti|mun-|dum.|

